packages/ui-icons/src/Service-logos/24/Eset.svg

<svg viewBox="0 0 32 32" fill="none" xmlns="http://www.w3.org/2000/svg">
<path d="M16 28C22.6274 28 28 22.6274 28 16C28 9.37258 22.6274 4 16 4C9.37258 4 4 9.37258 4 16C4 22.6274 9.37258 28 16 28Z" fill="white"/>
<path fill-rule="evenodd" clip-rule="evenodd" d="M16 4.54167C9.67174 4.54167 4.54167 9.67174 4.54167 16C4.54167 22.3283 9.67174 27.4583 16 27.4583C22.3283 27.4583 27.4583 22.3283 27.4583 16C27.4583 9.67174 22.3283 4.54167 16 4.54167ZM3.5 16C3.5 9.09644 9.09644 3.5 16 3.5C22.9036 3.5 28.5 9.09644 28.5 16C28.5 22.9036 22.9036 28.5 16 28.5C9.09644 28.5 3.5 22.9036 3.5 16Z" fill="#D8D8D8"/>
<path fill-rule="evenodd" clip-rule="evenodd" d="M7.50597 14.2862C7.15679 14.8758 7.07977 15.8363 7.07977 16.4727C7.07977 17.1094 7.15679 18.0697 7.50597 18.6591C7.90138 19.2927 8.65925 19.7399 9.54843 19.7399H22.5091C23.398 19.7399 24.1561 19.2927 24.5515 18.6591C24.9004 18.0697 24.9778 17.1091 24.9778 16.4725C24.9778 15.8363 24.9004 14.8758 24.5515 14.2862C24.1561 13.6526 23.398 13.2056 22.5091 13.2056H9.54843C8.65925 13.2056 7.90138 13.6526 7.50597 14.2862Z" fill="#008A92"/>
<path fill-rule="evenodd" clip-rule="evenodd" d="M8.27517 18.5877C7.77776 18.0669 7.66907 17.25 7.66907 16.4728C7.66907 15.6955 7.77776 14.8781 8.27517 14.3573C8.59002 14.0277 9.19513 13.7807 9.7132 13.7798H16.3969V19.1654H9.7132C9.19513 19.1644 8.59002 18.9175 8.27517 18.5877ZM17.2018 16.4694C17.2018 15.2932 17.468 14.9165 18.722 14.9165C19.8938 14.9165 20.2363 15.2251 20.2363 16.4694V16.607H18.1741V16.6405C18.1741 17.1883 18.2627 17.3753 18.722 17.3753C19.031 17.3753 19.2668 17.3419 19.2814 17.0155H20.236C20.2285 17.4514 20.0768 17.6953 19.8242 17.8378C19.5607 17.9806 19.1817 18.0163 18.722 18.0163C17.492 18.0163 17.2018 17.6101 17.2018 16.4694ZM20.8565 14.9288H23.299V15.6249H22.5741V18.0139H21.582V15.6249H20.8565V14.9288ZM12.7135 15.9195C12.7135 16.5303 12.9299 16.8158 14.2439 16.8158C14.3627 16.8158 14.5511 16.8094 14.6618 16.8562C14.7645 16.8999 14.8121 16.9875 14.8121 17.1462C14.8121 17.412 14.7122 17.4407 14.2439 17.4407C13.9833 17.4407 13.7181 17.435 13.7062 17.0927H12.7135C12.7212 17.7675 13.0493 17.9883 13.6559 18.0353C13.8394 18.0492 14.039 18.0481 14.2439 18.0481C15.0801 18.0481 15.7743 17.912 15.7743 17.0279C15.7743 16.1858 15.3234 16.1256 14.2435 16.1019C13.7072 16.0903 13.6757 15.9807 13.6757 15.8077C13.6757 15.6022 13.6991 15.5364 14.2439 15.5364C14.4437 15.5364 14.6426 15.5539 14.6879 15.796H15.6229V15.6717C15.6229 14.9388 14.8351 14.9288 14.2439 14.9288C13.3564 14.9288 12.7135 14.9483 12.7135 15.9195ZM9.00195 16.4914C9.00195 17.6365 9.29595 18.0481 10.5324 18.0481C10.9922 18.0481 11.3731 18.0127 11.6396 17.8686C11.8978 17.7226 12.0512 17.4731 12.0564 17.0275H11.0821C11.0717 17.3539 10.8446 17.3873 10.5324 17.3873C10.082 17.3873 9.99402 17.2086 9.99402 16.6623V16.639H12.0564V16.4914C12.0564 15.2418 11.7097 14.9288 10.5324 14.9288C9.27195 14.9288 9.00195 15.3111 9.00195 16.4914ZM10.5142 15.5896C10.8716 15.5896 11.0642 15.6239 11.0642 16.1023V16.1254H9.99392C10.0058 15.7165 10.0911 15.5896 10.5142 15.5896ZM18.1731 16.1133H19.264V16.0803C19.264 15.5943 19.064 15.5578 18.7041 15.5578C18.2669 15.5578 18.1853 15.6958 18.1731 16.1133Z" fill="#FFFFFE"/>
</svg>

<svg viewBox="0 0 32 32" xmlns="http://www.w3.org/2000/svg"><g fill="none" fill-rule="evenodd"><circle stroke="#D8D8D8" cx="16" cy="16" r="11.5"/><path d="M7.506 14.286c-.35.59-.426 1.55-.426 2.187 0 .636.077 1.597.426 2.186.395.634 1.153 1.08 2.042 1.08H22.51c.889 0 1.647-.446 2.042-1.08.35-.59.427-1.55.427-2.187 0-.636-.078-1.596-.427-2.186-.395-.633-1.153-1.08-2.042-1.08H9.55c-.89 0-1.648.447-2.043 1.08Z" fill="#008A92"/><path d="M8.275 18.588c-.497-.521-.606-1.338-.606-2.115 0-.778.109-1.595.606-2.116.315-.33.92-.576 1.438-.577h6.684v5.385H9.713c-.518 0-1.123-.248-1.438-.577Zm8.927-2.119c0-1.176.266-1.553 1.52-1.553 1.172 0 1.514.31 1.514 1.553v.138h-2.062v.033c0 .548.089.735.548.735.309 0 .545-.033.56-.36h.954c-.007.436-.16.68-.412.823-.263.142-.642.178-1.102.178-1.23 0-1.52-.406-1.52-1.547Zm3.654-1.54H23.3v.696h-.725v2.389h-.992v-2.39h-.726v-.695Zm-8.143.99c0 .611.217.897 1.53.897.12 0 .308-.007.419.04.102.044.15.131.15.29 0 .266-.1.295-.568.295-.26 0-.526-.006-.538-.348h-.993c.008.674.336.895.943.942.183.014.383.013.588.013.836 0 1.53-.136 1.53-1.02 0-.842-.45-.902-1.53-.926-.537-.012-.568-.121-.568-.294 0-.206.023-.272.568-.272.2 0 .399.018.444.26h.935v-.124c0-.733-.788-.743-1.38-.743-.887 0-1.53.02-1.53.99Zm-3.711.572c0 1.145.294 1.557 1.53 1.557.46 0 .841-.035 1.108-.18.258-.145.411-.395.416-.84h-.974c-.01.326-.237.36-.55.36-.45 0-.538-.18-.538-.726v-.023h2.062v-.148c0-1.25-.346-1.562-1.524-1.562-1.26 0-1.53.382-1.53 1.562Zm1.512-.901c.358 0 .55.034.55.512v.023h-1.07c.012-.409.097-.535.52-.535Zm7.66.523h1.09v-.033c0-.486-.2-.522-.56-.522-.437 0-.519.138-.53.555Z" fill="#FFFFFE"/></g></svg>
